X: 155
T:Three Scones of Boxty, The
R:reel
H:See also #748
F:http://blackrosetheband.googlepages.com/ABCTUNES.ABC May 2009
D:Altan: Horse with a Heart
Z:id:hn-reel-182
M:C|
K:Amix
EF|:GFEd cBAc|BAGB A2EF|GFEd cBAc|1 BAGE EDEF:|2 BAGE EDD2||
|:cded cA~A2|BG~G2 A2AB|1 cded cA~A2|BAGE EDD2:|2 cdef g2ed|cAGE EDEF||

